X:96
M:C
L:1/8
Q:1/4=100
K:G Minor
f>dg>d f>c d2|f>d b2 g>fd>B|c>d f<b g>fd>c|B<G ~B>A ~B>c d<g|
f>dg>d f>c d2|f>d b2 g>fd>B|c>d f<b g>f d b/4a/4g/4^f/4|g>B~B>A B>c d<g|
|

